X: 17678
T: Holly Bush, The
R: reel
M: 4/4
K: Dmixolydian
|:A2 FA DAFA|~A2 de efed|c ~G3 E ~G3|cedc AGFG|
A2 FA DAFA|~A2 de efed|c ~G3 cedc|AAGE d2 z2:|
|:A2 d^c defg|a2 de dc A2|~G3 A B/c/deg|aged cAGc|
A2 d^c defg|a z d/d/d dc A2|B/c/ded cAGE|FFEF d2 z2:|

